X:1
T:Brattle Street, CM
T:Brattle Street, CM
T: Ignaz Pleyel, 1791, arranged  by Lowell Mason
T:Public Domain Courtesy of the Cyber Hymnal™
C:Ignaz Pleyel, 1791, arranged  by Lowell Mason
Z:Public Domain
Z:Courtesy of the Cyber Hymnal™
%%score ( 1 2 ) ( 3 4 )
L:1/8
Q:1/4=115
M:6/8
K:Eb
V:1 treble 
V:2 treble 
V:3 bass 
V:4 bass 
V:1
 [GB]2 | [GB]3 [Ge] [GB]3 [EG] | [DA]2 [DA]2 [DF]2 [DF]2 | E2 [DF]2 (GE) ([GB][EG]) | %4
 [EG]4 [DF]2 [GB]2 | [GB]3 [Ge] [GB]3 [EG] | [DA]2 [DA]2 [DF]2 [FA]2 | %7
 (GB/e/) ([Ee]c/A/) [EG]2 [DF]2 | E6 [DF]2 | [DF]3 [=EG] [FA]3 [Ac] | [GB]3 [EG] E2 [EG]2 | %11
 [DF]3 [=EG] [FA]2 ([FA][GB]/[Ac]/) | [Ac]4 [GB]2 [GB]2 | [Ge]3 [GB] [EG]3 [EB] | %14
 [DA]2 [DA]2 [DF]2 [FA]2 | (GB/e/) ([Ee]c/A/) [EG]2 [DF]2 | E6 |] %17
V:2
 x2 | x8 | x8 | E2 E2 x4 | x8 | x8 | x8 | E2 F x5 | E6 x2 | x8 | x4 E2 x2 | x8 | x8 | x8 | x8 | %15
 E2 F x5 | E6 |] %17
V:3
 [E,B,]2 | [E,B,]3 [E,B,] [E,E]3 [E,B,] | [B,,B,]2 [B,,B,]2 [B,,B,]2 [A,B,]2 | %3
 [G,B,]2 B,2 (B,G,) (EB,) | B,6 [E,B,]2 | [E,B,]3 [E,B,] [E,E]3 [E,B,] | %6
 [B,,B,]2 [B,,B,]2 [B,,B,]2 [D,B,]2 | (B,G,) (A, C) B,2 [B,,A,]2 | [E,G,]6 [B,,B,]2 | %9
 (B,2 A,) [B,,G,] [B,,F,]3 [D,F,] | [E,G,]3 [E,B,] [E,G,]2 [E,B,]2 | %11
 (B,2 A,) [B,,G,] [B,,F,]2 [D,F,]2 | E,6 [E,B,]2 | [E,B,]3 [E,B,] [E,B,]3 [E,G,] | %14
 [B,,F,]2 [B,,F,]2 [B,,B,]2 [D,B,]2 | (B,G,) (A, C) B,2 [B,,A,]2 | [E,G,]6 |] %17
V:4
 x2 | x8 | x8 | x2 B,2 E,2 E,2 | B,6 x2 | x8 | x8 | E,2 A,2 B,2 x2 | x8 | B,,3 x5 | x8 | B,,3 x5 | %12
 E,6 x2 | x8 | x8 | E,2 A,2 B,2 x2 | x6 |] %17

